X:9
T:Gloire  Dieu, Seigneur des univers - A217
C:J.P. Kempf
M:C
L:1/4
K:F
"Fa"AA "Rem"F3/F/|"Solm"B/B/ B/A/ "Do"G2|"Lam"c3/B/ "Rem"A3/F/|"Fa"A2 "Do"G2|"La"A3/G/ "Rem"FF|\
"Solm"B/B/ B/A/ "Do"GG|"Lam"c3/B/ "Rem"A3/F/|"Do"G2 "Fa"F2|
|:"Fa"AA/A/ "Si\b"BA|"Sol"G2- G z/D/|"Rem"FF/F/ "La"E/E/ F/E/|"Rem"D2 z/D/ F/G/|"Fa"AA "Si\b"B/A/ B/c/-|\
"Lam"c3 A|"Rem"FF "Sol"GG|"La"A2 G2:|
